ui/StatusQ/src/assets/img/icons/bigger/settings.svg

<svg fill="none" height="24" viewBox="0 0 24 24" width="24" xmlns="http://www.w3.org/2000/svg"><g clip-rule="evenodd" fill="#939ba1" fill-rule="evenodd"><path d="m15.4083 12c0 1.8823-1.5259 3.4082-3.4083 3.4082-1.8823 0-3.4082-1.5259-3.4082-3.4082s1.5259-3.40826 3.4082-3.40826c1.8824 0 3.4083 1.52596 3.4083 3.40826zm-1.5 0c0 1.0539-.8544 1.9082-1.9083 1.9082s-1.9082-.8543-1.9082-1.9082.8543-1.9083 1.9082-1.9083 1.9083.8544 1.9083 1.9083z"/><path d="m12.2772 23h-.5544c-.8815 0-1.6562-.5844-1.89839-1.432l-.49811-1.7433c-.09703-.3397-.47875-.5076-.79467-.3496l-1.63103.8155c-.76011.3801-1.67813.2311-2.27904-.3698l-.54232-.5424c-.60092-.6009-.74989-1.5189-.36984-2.279l.81551-1.631c.15796-.3159-.00996-.6977-.34957-.7947l-1.74338-.4981c-.84759-.2422-1.43196-1.0169-1.43196-1.8984v-.5544c0-.8815.58437-1.6562 1.43196-1.89839l1.74338-.49811c.33961-.09703.50753-.47875.34957-.79467l-.81551-1.63103c-.38005-.76011-.23108-1.67813.36984-2.27904l.54232-.54232c.60091-.60092 1.51893-.74989 2.27904-.36984l1.63103.81551c.31592.15796.69764-.00996.79467-.34957l.49811-1.74338c.24219-.8476 1.01689-1.43196 1.89839-1.43196h.5544c.8815 0 1.6562.58436 1.8984 1.43196l.4981 1.74338c.097.33961.4788.50753.7947.34957l1.631-.81551c.7601-.38005 1.6781-.23108 2.279.36984l.5424.54232c.6009.60091.7499 1.51893.3698 2.27904l-.8155 1.63103c-.158.31592.0099.69764.3496.79467l1.7433.49811c.8476.24219 1.432 1.01689 1.432 1.89839v.5544c0 .8815-.5844 1.6562-1.432 1.8984l-1.7433.4981c-.3397.097-.5076.4788-.3496.7947l.8155 1.631c.3801.7601.2311 1.6781-.3698 2.279l-.5424.5424c-.6009.6009-1.5189.7499-2.279.3698l-1.631-.8155c-.3159-.158-.6977.0099-.7947.3496l-.4981 1.7433c-.2422.8476-1.0169 1.432-1.8984 1.432zm-.5544-1.5c-.2118 0-.3979-.1404-.4561-.344l-.4981-1.7434c-.3551-1.2427-1.75182-1.8571-2.90779-1.2792l-1.63103.8156c-.18262.0913-.40319.0555-.54756-.0889l-.54232-.5423c-.14438-.1444-.18017-.365-.08886-.5476l.81551-1.631c.57799-1.156-.03645-2.5527-1.27913-2.9078l-1.74338-.4981c-.20364-.0582-.34404-.2443-.34404-.4561v-.5544c0-.2118.1404-.3979.34404-.4561l1.74338-.4981c1.24269-.3551 1.85712-1.75182 1.27914-2.90779l-.81552-1.63103c-.09131-.18262-.05552-.40319.08886-.54756l.54232-.54232c.14437-.14438.36494-.18017.54756-.08886l1.63103.81551c1.15596.57799 2.55269-.03644 2.90779-1.27913l.4981-1.74338c.0582-.20364.2443-.34404.4561-.34404h.5544c.2118 0 .3979.1404.4561.34404l.4981 1.74338c.3551 1.24269 1.7518 1.85712 2.9078 1.27913l1.631-.81551c.1826-.09131.4032-.05552.5476.08886l.5423.54232c.1444.14437.1802.36494.0889.54756l-.8156 1.63103c-.5779 1.15597.0365 2.55269 1.2792 2.90779l1.7434.4981c.2036.0582.344.2443.344.4561v.5544c0 .2118-.1404.3979-.344.4561l-1.7434.4981c-1.2427.3551-1.8571 1.7518-1.2792 2.9078l.8156 1.631c.0913.1826.0555.4032-.0889.5476l-.5423.5423c-.1444.1444-.365.1802-.5476.0889l-1.631-.8156c-1.156-.5779-2.5527.0365-2.9078 1.2792l-.4981 1.7434c-.0582.2036-.2443.344-.4561.344z"/></g></svg>

<svg width="24" height="24" viewBox="0 0 24 24" fill="none" xmlns="http://www.w3.org/2000/svg">
<path fill-rule="evenodd" clip-rule="evenodd" d="M15.4083 12C15.4083 13.8823 13.8824 15.4082 12 15.4082C10.1177 15.4082 8.5918 13.8823 8.5918 12C8.5918 10.1177 10.1177 8.59174 12 8.59174C13.8824 8.59174 15.4083 10.1177 15.4083 12ZM13.9083 12C13.9083 13.0539 13.0539 13.9082 12 13.9082C10.9461 13.9082 10.0918 13.0539 10.0918 12C10.0918 10.9461 10.9461 10.0917 12 10.0917C13.0539 10.0917 13.9083 10.9461 13.9083 12Z" fill="#939BA1"/>
<path fill-rule="evenodd" clip-rule="evenodd" d="M12.2772 23H11.7228C10.8413 23 10.0666 22.4156 9.82441 21.568L9.3263 19.8247C9.22927 19.485 8.84755 19.3171 8.53163 19.4751L6.9006 20.2906C6.14049 20.6707 5.22247 20.5217 4.62156 19.9208L4.07924 19.3784C3.47832 18.7775 3.32935 17.8595 3.7094 17.0994L4.52491 15.4684C4.68287 15.1525 4.51495 14.7707 4.17534 14.6737L2.43196 14.1756C1.58437 13.9334 1 13.1587 1 12.2772V11.7228C1 10.8413 1.58437 10.0666 2.43196 9.82441L4.17534 9.3263C4.51495 9.22927 4.68287 8.84755 4.52491 8.53163L3.7094 6.9006C3.32935 6.14049 3.47832 5.22247 4.07924 4.62156L4.62156 4.07924C5.22247 3.47832 6.14049 3.32935 6.9006 3.7094L8.53163 4.52491C8.84755 4.68287 9.22927 4.51495 9.3263 4.17534L9.82441 2.43196C10.0666 1.58436 10.8413 1 11.7228 1H12.2772C13.1587 1 13.9334 1.58436 14.1756 2.43196L14.6737 4.17534C14.7707 4.51495 15.1525 4.68287 15.4684 4.52491L17.0994 3.7094C17.8595 3.32935 18.7775 3.47832 19.3784 4.07924L19.9208 4.62156C20.5217 5.22247 20.6707 6.14049 20.2906 6.9006L19.4751 8.53163C19.3171 8.84755 19.485 9.22927 19.8247 9.3263L21.568 9.82441C22.4156 10.0666 23 10.8413 23 11.7228V12.2772C23 13.1587 22.4156 13.9334 21.568 14.1756L19.8247 14.6737C19.485 14.7707 19.3171 15.1525 19.4751 15.4684L20.2906 17.0994C20.6707 17.8595 20.5217 18.7775 19.9208 19.3784L19.3784 19.9208C18.7775 20.5217 17.8595 20.6707 17.0994 20.2906L15.4684 19.4751C15.1525 19.3171 14.7707 19.485 14.6737 19.8247L14.1756 21.568C13.9334 22.4156 13.1587 23 12.2772 23ZM11.7228 21.5C11.511 21.5 11.3249 21.3596 11.2667 21.156L10.7686 19.4126C10.4135 18.1699 9.01678 17.5555 7.86081 18.1334L6.22978 18.949C6.04716 19.0403 5.82659 19.0045 5.68222 18.8601L5.1399 18.3178C4.99552 18.1734 4.95973 17.9528 5.05104 17.7702L5.86655 16.1392C6.44454 14.9832 5.8301 13.5865 4.58742 13.2314L2.84404 12.7333C2.6404 12.6751 2.5 12.489 2.5 12.2772V11.7228C2.5 11.511 2.6404 11.3249 2.84404 11.2667L4.58742 10.7686C5.83011 10.4135 6.44454 9.01678 5.86656 7.86081L5.05104 6.22978C4.95973 6.04716 4.99552 5.82659 5.1399 5.68222L5.68222 5.1399C5.82659 4.99552 6.04716 4.95973 6.22978 5.05104L7.86081 5.86655C9.01677 6.44454 10.4135 5.83011 10.7686 4.58742L11.2667 2.84404C11.3249 2.6404 11.511 2.5 11.7228 2.5H12.2772C12.489 2.5 12.6751 2.6404 12.7333 2.84404L13.2314 4.58742C13.5865 5.83011 14.9832 6.44454 16.1392 5.86655L17.7702 5.05104C17.9528 4.95973 18.1734 4.99552 18.3178 5.1399L18.8601 5.68222C19.0045 5.82659 19.0403 6.04716 18.949 6.22978L18.1334 7.86081C17.5555 9.01678 18.1699 10.4135 19.4126 10.7686L21.156 11.2667C21.3596 11.3249 21.5 11.511 21.5 11.7228V12.2772C21.5 12.489 21.3596 12.6751 21.156 12.7333L19.4126 13.2314C18.1699 13.5865 17.5555 14.9832 18.1334 16.1392L18.949 17.7702C19.0403 17.9528 19.0045 18.1734 18.8601 18.3178L18.3178 18.8601C18.1734 19.0045 17.9528 19.0403 17.7702 18.949L16.1392 18.1334C14.9832 17.5555 13.5865 18.1699 13.2314 19.4126L12.7333 21.156C12.6751 21.3596 12.489 21.5 12.2772 21.5H11.7228Z" fill="#939BA1"/>
</svg>
